X: 1371
M: 3/4
L: 1/8
K: D
V: 1
(Adf |\
baf)(Adf | baf)(Adf | age)(Ace | gfd)(Adf |\
baf)(Adf | baf)(Adf | age)(Ace | d3) H|]
"8va. Ad lib."(EAc |\
fec)(Ece | fec)(EAc | edB)(E^GB | dcA)(EAc |\
fec)(Ece | fec)(EAc | edB)(E^GB | A3) "^D.C."|]
V: 2
zz2 |\
[F2D2][A2F2][A2F2] | [F2D2][A2F2][A2F2] | [E2C2][A2E2][A2E2] | [F2D2][A2F2][A2F2] |\
[F2D2][A2F2][A2F2] | [F2D2][A2F2][A2F2] | [E2C2][A2E2][A2E2] | [A3F3] H|]
zz2 |\
z2[E2C2][E2C2] | z2[E2C2][E2C2] | z2[E2D2][E2D2] | z2[E2C2][E2C2] |\
z2[E2C2][E2C2] | z2[E2C2][E2C2] | z2[E2D2][E2D2] | [E3C3] "^D.C."|]
V: 3 clef=bass middle=d
zz2 |\
d2z2z2 | d2z2z2 | A2z2z2 | d2z2z2 |\
d2z2z2 | d2z2z2 | A2z2z2 | d3 H|]
zz2 |\

